Misc/spline_axes.svg

<svg xmlns="http://www.w3.org/2000/svg" viewBox="0 0 1200 800" preserveAspectRatio="none" width="1200" height="800">
 <title>
  splines_test/[9]
 </title>
 <rect x="0" y="0" width="1200" height="800" style="fill: none;"></rect>
 <g>
  <g transform="translate(120,80)">
   <title></title>
   <rect x="0" y="0" width="960" height="640" style="fill: white; stroke: black; stroke-width: 1;"></rect>
   <svg x="0" y="0" overflow="hidden" width="960" height="640" viewBox="0 0 960 640">
    <g>
     <path d="M0,264.32c1.44,0.49,7.5,1.73,9.6,3.25s8.41,9.13,9.6,10.68s8.59,12.86,9.6,14.35s8.35,12.39,9.6,13.95s7.46,8.47,9.6,9.98s6.4,3.58,9.6,3.55s7.49,-2.2,9.6,-3.72s8.36,-8.54,9.6,-10.1s8.59,-12.52,9.6,-14.01s8.4,-12.76,9.6,-14.31s7.47,-9.04,9.6,-10.55s6.54,-3.7,9.6,-3.04s8.44,5.59,9.6,7.13s9.14,17.18,9.6,18.31s9.34,27.59,9.6,28.47s9.4,34.83,9.6,35.61s9.39,37.24,9.6,38.03s9.3,33.76,9.6,34.69s8.9,24.06,9.6,25.39s6.52,10.29,9.6,10.88s8.81,-5.79,9.6,-7.16s9.38,-25.59,9.6,-26.4s9.49,-43.51,9.6,-44.1s9.52,-57.01,9.6,-57.51s9.53,-63.84,9.6,-64.32s9.51,-62.49,9.6,-63s9.46,-52.42,9.6,-53.09s9.14,-34.18,9.6,-35.3s6.53,-12.14,9.6,-11.51s9.28,14.48,9.6,15.44s9.5,41.59,9.6,42.14s9.55,64.59,9.6,65s9.56,80.42,9.6,80.78s9.56,86.67,9.6,87.03s9.55,82.08,9.6,82.48s9.51,66.7,9.6,67.25s9.25,41.86,9.6,42.85s6.99,13.35,9.6,12.11s9.4,-20.49,9.6,-21.26s9.53,-52.6,9.6,-53.06s9.56,-78.83,9.6,-79.17s9.57,-95.81,9.6,-96.12s9.57,-101.21,9.6,-101.52s9.56,-94.09,9.6,-94.45s9.52,-75.05,9.6,-75.54s9.3,-46.04,9.6,-46.98s7.32,-13.68,9.6,-12.23s9.44,23.73,9.6,24.43s9.54,58,9.6,58.42s9.57,85.14,9.6,85.46s9.57,101.85,9.6,102.14s9.57,106.05,9.6,106.35s9.56,97.2,9.6,97.55s9.52,76.37,9.6,76.85s9.29,45.94,9.6,46.89s7.47,12.94,9.6,11.43s9.44,-24.37,9.6,-25.07s9.54,-57.65,9.6,-58.08s9.56,-83.2,9.6,-83.53s9.57,-98.09,9.6,-98.39s9.57,-100.7,9.6,-101.01s9.56,-90.93,9.6,-91.3s9.51,-70.22,9.6,-70.75s9.21,-41.12,9.6,-42.17s7.54,-10.85,9.6,-9.32s9.41,22.82,9.6,23.58s9.53,51.97,9.6,52.45s9.55,73.46,9.6,73.84s9.56,85.01,9.6,85.37s9.56,85.63,9.6,86s9.54,75.69,9.6,76.14s9.46,56.86,9.6,57.51s8.74,31.46,9.6,32.88s7.32,7.12,9.6,5.67s9.33,-19.63,9.6,-20.52s9.49,-41.86,9.6,-42.45s9.52,-57.1,9.6,-57.59s9.53,-63.98,9.6,-64.46s9.51,-62.25,9.6,-62.76s9.47,-52.73,9.6,-53.37s9.28,-37.18,9.6,-38.14s6.44,-19.22,9.6,-19.57s6.43,-0.74,9.6,-0.46s9.12,15.43,9.6,16.57s9.35,28.5,9.6,29.36s9.4,35.8,9.6,36.57s9.38,36.99,9.6,37.79s9.29,32.58,9.6,33.53s8.99,23.83,9.6,25.09s7.86,12.73,9.6,14.33s6.47,3.75,9.6,3.29s7.94,-4.5,9.6,-6.1s8.53,-10.84,9.6,-12.35s8.56,-13.16,9.6,-14.66s8.14,-11.39,9.6,-12.98s6.69,-7.12,9.6,-8.03s6.49,-1.66,9.6,-1.14s7.88,4.44,9.6,6.03s8.49,10.22,9.6,11.75s9.11,13.81,9.6,14.54" style="fill: none; stroke: red; stroke-width: 2;"></path>
    </g>
    <g>
     <path d="M-9.6,305.8c0.49,0.74,7.99,12.94,9.6,14.54s6.42,4.34,9.6,4.58s7.27,-1.71,9.6,-3.14s8.1,-7,9.6,-8.6s8.39,-10.25,9.6,-11.81s8.37,-11.21,9.6,-12.77s8.02,-9.87,9.6,-11.47s7.09,-6.61,9.6,-7.93s6.52,-2.74,9.6,-2.14s8.22,4.33,9.6,5.91s9.07,15.01,9.6,16.2s9.31,26.12,9.6,27.04s9.38,33.29,9.6,34.1s9.39,35.92,9.6,36.72s9.33,34.02,9.6,34.91s9.14,27.52,9.6,28.65s7.68,16.39,9.6,17.95s6.85,4.03,9.6,2.92s9,-12.01,9.6,-13.25s9.34,-25.99,9.6,-26.86s9.44,-37.01,9.6,-37.71s9.48,-45.17,9.6,-45.78s9.5,-50.53,9.6,-51.09s9.5,-52.99,9.6,-53.55s9.48,-51.02,9.6,-51.64s9.4,-43.28,9.6,-44.05s9.06,-29.55,9.6,-30.75s6.41,-11.95,9.6,-11.74s9.23,11.95,9.6,12.97s9.49,39.39,9.6,39.98s9.54,60.2,9.6,60.65s9.55,73.26,9.6,73.65s9.55,78.59,9.6,78.98s9.54,76.22,9.6,76.64s9.52,66.69,9.6,67.2s9.44,51.7,9.6,52.39s9.01,31.32,9.6,32.56s7.55,9.25,9.6,7.72s9.4,-21.33,9.6,-22.11s9.53,-51.95,9.6,-52.43s9.56,-74.42,9.6,-74.79s9.56,-87.92,9.6,-88.25s9.56,-92.48,9.6,-92.82s9.56,-88.22,9.6,-88.58s9.54,-76.4,9.6,-76.84s9.47,-57.87,9.6,-58.51s7.05,-32.3,9.6,-33.59s6.89,-3.25,9.6,-2.1s9.47,31.52,9.6,32.16s9.54,59.64,9.6,60.07s9.56,79.93,9.6,80.28s9.57,92.47,9.6,92.79s9.57,97.12,9.6,97.44s9.56,92.98,9.6,93.33s9.54,79.65,9.6,80.09s9.44,57.02,9.6,57.71s7.67,25.21,9.6,26.78s8.6,-3.94,9.6,-5.42s9.47,-33.22,9.6,-33.86s9.54,-58,9.6,-58.44s9.56,-78.63,9.6,-78.98s9.57,-91.89,9.6,-92.22s9.57,-94.85,9.6,-95.18s9.55,-87.39,9.6,-87.77s9.52,-69.7,9.6,-70.21s9.37,-46.01,9.6,-46.84s7.32,-20.24,9.6,-21.69s8.58,3.59,9.6,5.09s9.46,32.48,9.6,33.13s9.53,56.56,9.6,57.03s9.55,72.26,9.6,72.65s9.55,79.52,9.6,79.9s9.55,78.52,9.6,78.93s9.53,70.67,9.6,71.14s9.47,56.63,9.6,57.26s9.19,36.21,9.6,37.28s6.45,12.26,9.6,12.66s8.99,-8.94,9.6,-10.19s9.4,-28.75,9.6,-29.52s9.49,-44.72,9.6,-45.3s9.52,-55.95,9.6,-56.46s9.52,-60.35,9.6,-60.86s9.5,-57.69,9.6,-58.25s9.44,-48.13,9.6,-48.82s9.27,-34.65,9.6,-35.62s8.49,-19.56,9.6,-21.09s6.65,-6.15,9.6,-5.29s8.84,9.5,9.6,10.86s9.25,22.46,9.6,23.46s9.35,30.58,9.6,31.43s9.37,33.98,9.6,34.81s9.34,33.25,9.6,34.13s9.23,29.04,9.6,30.07s8.87,21.33,9.6,22.68s7.69,11.01,9.6,12.58s6.41,3.38,9.6,3.19s7.55,-2.81,9.6,-4.34s8.3,-8.44,9.6,-10.01s9.05,-12.49,9.6,-13.25" style="fill: none; stroke: rgb(0,255,0); stroke-width: 3;"></path>
    </g>
   </svg>
   <g>
    <g transform="translate(0,640)">
     <line x1="0" y1="0" x2="960" y2="0" style="stroke: black; stroke-width: 1;"></line>
     <path d="M2,-12v12m28,-12v12m27,-24v24m28,-12v12m28,-12v12m28,-12v12m27,-12v12m28,-24v24m28,-12v12m27,-12v12m28,-12v12m28,-12v12m28,-24v24m27,-12v12m28,-12v12m28,-12v12m27,-12v12m28,-24v24m28,-12v12m27,-12v12m28,-12v12m28,-12v12m28,-24v24m27,-12v12m28,-12v12m28,-12v12m27,-12v12m28,-24v24m28,-12v12m28,-12v12m27,-12v12m28,-12v12m28,-24v24m27,-12v12m28,-12v12" style="stroke: black; stroke-width: 1;"></path>
     <g font-family="Arial" font-size="28" space="preserve">
      <text fill="black" text-anchor="middle" dy=".8em" transform="translate(57,6)">
       0
      </text>
      <text fill="black" text-anchor="middle" dy=".8em" transform="translate(196,6)">
       5
      </text>
      <text fill="black" text-anchor="middle" dy=".8em" transform="translate(335,6)">
       10
      </text>
      <text fill="black" text-anchor="middle" dy=".8em" transform="translate(473,6)">
       15
      </text>
      <text fill="black" text-anchor="middle" dy=".8em" transform="translate(612,6)">
       20
      </text>
      <text fill="black" text-anchor="middle" dy=".8em" transform="translate(750,6)">
       25
      </text>
      <text fill="black" text-anchor="middle" dy=".8em" transform="translate(889,6)">
       30
      </text>
     </g>
    </g>
    <g>
     <line x1="0" y1="0" x2="0" y2="640" style="stroke: black; stroke-width: 1;"></line>
     <path d="M36,629h-36m18,-15h-18m18,-16h-18m18,-15h-18m36,-16h-36m18,-15h-18m18,-16h-18m18,-15h-18m36,-15h-36m18,-16h-18m18,-15h-18m18,-16h-18m36,-15h-36m18,-16h-18m18,-15h-18m18,-16h-18m36,-15h-36m18,-16h-18m18,-15h-18m18,-15h-18m36,-16h-36m18,-15h-18m18,-16h-18m18,-15h-18m36,-16h-36m18,-15h-18m18,-16h-18m18,-15h-18m36,-16h-36m18,-15h-18m18,-15h-18m18,-16h-18m36,-15h-36m18,-16h-18m18,-15h-18m18,-16h-18m36,-15h-36m18,-16h-18m18,-15h-18m18,-16h-18m36,-15h-36" style="stroke: black; stroke-width: 1;"></path>
     <g font-family="Arial" font-size="28" space="preserve">
      <text fill="black" text-anchor="end" dy=".4em" transform="translate(-4,629)">
       -1
      </text>
      <text fill="black" text-anchor="end" dy=".4em" transform="translate(-4,567)">
       -0.8
      </text>
      <text fill="black" text-anchor="end" dy=".4em" transform="translate(-4,506)">
       -0.6
      </text>
      <text fill="black" text-anchor="end" dy=".4em" transform="translate(-4,444)">
       -0.4
      </text>
      <text fill="black" text-anchor="end" dy=".4em" transform="translate(-4,382)">
       -0.2
      </text>
      <text fill="black" text-anchor="end" dy=".4em" transform="translate(-4,320)">
       0
      </text>
      <text fill="black" text-anchor="end" dy=".4em" transform="translate(-4,258)">
       0.2
      </text>
      <text fill="black" text-anchor="end" dy=".4em" transform="translate(-4,196)">
       0.4
      </text>
      <text fill="black" text-anchor="end" dy=".4em" transform="translate(-4,135)">
       0.6
      </text>
      <text fill="black" text-anchor="end" dy=".4em" transform="translate(-4,73)">
       0.8
      </text>
      <text fill="black" text-anchor="end" dy=".4em" transform="translate(-4,11)">
       1
      </text>
     </g>
    </g>
    <g>
     <line x1="0" y1="0" x2="960" y2="0" style="stroke: black; stroke-width: 1;"></line>
     <path d="M15,0v24m31,-24v12m30,-12v12m31,-12v12m30,-12v12m31,-12v24m30,-24v12m31,-12v12m30,-12v12m31,-12v12m30,-12v24m30,-24v12m31,-12v12m30,-12v12m31,-12v12m30,-12v24m31,-24v12m30,-12v12m31,-12v12m30,-12v12m31,-12v24m30,-24v12m31,-12v12m30,-12v12m31,-12v12m30,-12v24m31,-24v12m30,-12v12m31,-12v12m30,-12v12m31,-12v24m30,-24v12" style="stroke: black; stroke-width: 1;"></path>
     <g font-family="Arial" font-size="28" space="preserve">
      <text fill="black" text-anchor="middle" transform="translate(15,-6)">
       0
      </text>
      <text fill="black" text-anchor="middle" transform="translate(168,-6)">
       5
      </text>
      <text fill="black" text-anchor="middle" transform="translate(320,-6)">
       10
      </text>
      <text fill="black" text-anchor="middle" transform="translate(472,-6)">
       15
      </text>
      <text fill="black" text-anchor="middle" transform="translate(625,-6)">
       20
      </text>
      <text fill="black" text-anchor="middle" transform="translate(777,-6)">
       25
      </text>
      <text fill="black" text-anchor="middle" transform="translate(930,-6)">
       30
      </text>
     </g>
    </g>
    <g transform="translate(960,0)">
     <line x1="0" y1="0" x2="0" y2="640" style="stroke: black; stroke-width: 1;"></line>
     <path d="M0,630h-18m18,-16h-18m18,-16h-18m18,-16h-36m36,-16h-18m18,-16h-18m18,-16h-18m18,-15h-36m36,-16h-18m18,-16h-18m18,-16h-18m18,-16h-36m36,-16h-18m18,-16h-18m18,-16h-18m18,-15h-36m36,-16h-18m18,-16h-18m18,-16h-18m18,-16h-36m36,-16h-18m18,-16h-18m18,-16h-18m18,-16h-36m36,-15h-18m18,-16h-18m18,-16h-18m18,-16h-36m36,-16h-18m18,-16h-18m18,-16h-18m18,-16h-36m36,-16h-18m18,-15h-18m18,-16h-18m18,-16h-36m36,-16h-18m18,-16h-18m18,-16h-18m18,-16h-36" style="stroke: black; stroke-width: 1;"></path>
     <g font-family="Arial" font-size="28" space="preserve">
      <text fill="black" text-anchor="start" dy=".4em" transform="translate(4,582)">
       -0.8
      </text>
      <text fill="black" text-anchor="start" dy=".4em" transform="translate(4,519)">
       -0.6
      </text>
      <text fill="black" text-anchor="start" dy=".4em" transform="translate(4,455)">
       -0.4
      </text>
      <text fill="black" text-anchor="start" dy=".4em" transform="translate(4,392)">
       -0.2
      </text>
      <text fill="black" text-anchor="start" dy=".4em" transform="translate(4,328)">
       0
      </text>
      <text fill="black" text-anchor="start" dy=".4em" transform="translate(4,264)">
       0.2
      </text>
      <text fill="black" text-anchor="start" dy=".4em" transform="translate(4,201)">
       0.4
      </text>
      <text fill="black" text-anchor="start" dy=".4em" transform="translate(4,137)">
       0.6
      </text>
      <text fill="black" text-anchor="start" dy=".4em" transform="translate(4,74)">
       0.8
      </text>
      <text fill="black" text-anchor="start" dy=".4em" transform="translate(4,10)">
       1
      </text>
     </g>
    </g>
   </g>
  </g>
  <g transform="translate(120,4)" font-family="Arial" font-size="40" space="preserve">
   <path d="M0,0h960v53h-960z" style="fill: none;"></path>
   <text fill="black" text-anchor="middle" dy=".8em" transform="translate(480,0)">
    sin(x)*sin(x/10)
   </text>
  </g>
 </g>
</svg>

<svg xmlns="http://www.w3.org/2000/svg" viewBox="0 0 1200 800" preserveAspectRatio="none" width="1200" height="800">
 <title>
  splines_test/[9]
 </title>
 <rect x="0" y="0" width="1200" height="800" style="fill: none;"></rect>
 <g>
  <g transform="translate(120,80)">
   <title></title>
   <rect x="0" y="0" width="960" height="640" style="fill: white; stroke: black; stroke-width: 1;"></rect>
   <svg x="0" y="0" overflow="hidden" width="960" height="640" viewBox="0 0 960 640">
    <g>
     <path d="M0,264.32C1.44,264.81,7.5,266.06,9.6,267.58S18.01,276.71,19.2,278.25S27.79,291.11,28.8,292.6S37.15,304.99,38.4,306.55S45.86,315.02,48,316.53S54.4,320.11,57.6,320.08S65.09,317.88,67.2,316.36S75.56,307.82,76.8,306.26S85.39,293.74,86.4,292.26S94.8,279.5,96,277.95S103.47,268.91,105.6,267.4S112.14,263.71,115.2,264.36S123.64,269.95,124.8,271.49S133.94,288.67,134.4,289.8S143.74,317.39,144,318.27S153.4,353.1,153.6,353.88S162.99,391.12,163.2,391.91S172.5,425.67,172.8,426.6S181.7,450.66,182.4,451.99S188.92,462.27,192,462.87S200.81,457.08,201.6,455.7S210.98,430.11,211.2,429.3S220.69,385.79,220.8,385.21S230.32,328.19,230.4,327.7S239.93,263.86,240,263.38S249.51,200.9,249.6,200.38S259.06,147.96,259.2,147.3S268.34,113.12,268.8,112S275.33,99.85,278.4,100.48S287.68,114.96,288,115.92S297.5,157.51,297.6,158.07S307.15,222.65,307.2,223.07S316.76,303.49,316.8,303.85S326.36,390.52,326.4,390.88S335.95,472.96,336,473.36S345.51,540.07,345.6,540.61S354.85,582.46,355.2,583.46S362.19,596.81,364.8,595.57S374.2,575.08,374.4,574.3S383.93,521.7,384,521.24S393.56,442.42,393.6,442.07S403.17,346.26,403.2,345.95S412.77,244.74,412.8,244.43S422.36,150.34,422.4,149.98S431.92,74.94,432,74.45S441.3,28.41,441.6,27.47S448.92,13.79,451.2,15.24S460.64,38.97,460.8,39.67S470.34,97.67,470.4,98.09S479.97,183.23,480,183.56S489.57,285.41,489.6,285.7S499.17,391.75,499.2,392.05S508.76,489.25,508.8,489.6S518.32,565.97,518.4,566.45S527.69,612.39,528,613.34S535.47,626.28,537.6,624.77S547.04,600.39,547.2,599.69S556.74,542.04,556.8,541.62S566.36,458.42,566.4,458.08S575.97,360,576,359.69S585.57,258.99,585.6,258.68S595.16,167.75,595.2,167.37S604.71,97.15,604.8,96.62S614.01,55.51,614.4,54.46S621.94,43.6,624,45.14S633.41,67.96,633.6,68.72S643.13,120.69,643.2,121.17S652.75,194.63,652.8,195.01S662.36,280.02,662.4,280.38S671.96,366,672,366.38S681.54,442.07,681.6,442.52S691.06,499.37,691.2,500.02S699.94,531.48,700.8,532.9S708.12,540.02,710.4,538.57S719.73,518.94,720,518.05S729.49,476.19,729.6,475.6S739.12,418.5,739.2,418.01S748.73,354.02,748.8,353.55S758.31,291.31,758.4,290.79S767.87,238.06,768,237.42S777.28,200.24,777.6,199.28S784.04,180.05,787.2,179.7S793.63,178.96,796.8,179.25S805.92,194.67,806.4,195.81S815.75,224.31,816,225.17S825.4,260.97,825.6,261.74S834.98,298.73,835.2,299.54S844.49,332.12,844.8,333.07S853.79,356.9,854.4,358.16S862.26,370.89,864,372.49S870.47,376.24,873.6,375.78S881.54,371.28,883.2,369.68S891.73,358.84,892.8,357.33S901.36,344.17,902.4,342.67S910.54,331.29,912,329.69S918.69,322.57,921.6,321.66S928.09,320,931.2,320.52S939.08,324.96,940.8,326.55S949.29,336.78,950.4,338.3S959.51,352.11,960,352.84" style="fill: none; stroke: red; stroke-width: 2;"></path>
    </g>
    <g>
     <path d="M-9.6,305.8C-9.11,306.54,-1.61,318.74,0,320.34S6.42,324.68,9.6,324.92S16.87,323.21,19.2,321.78S27.3,314.78,28.8,313.19S37.19,302.93,38.4,301.38S46.77,290.17,48,288.61S56.02,278.74,57.6,277.14S64.69,270.53,67.2,269.21S73.72,266.47,76.8,267.08S85.02,271.4,86.4,272.99S95.47,288,96,289.19S105.31,315.31,105.6,316.22S114.98,349.52,115.2,350.32S124.59,386.25,124.8,387.05S134.13,421.07,134.4,421.96S143.54,449.48,144,450.61S151.68,466.99,153.6,468.56S160.45,472.59,163.2,471.48S172.2,459.48,172.8,458.23S182.14,432.24,182.4,431.37S191.84,394.36,192,393.66S201.48,348.49,201.6,347.87S211.1,297.35,211.2,296.78S220.7,243.79,220.8,243.23S230.28,192.21,230.4,191.59S239.8,148.31,240,147.54S249.06,117.99,249.6,116.79S256.01,104.84,259.2,105.05S268.43,117,268.8,118.02S278.29,157.41,278.4,158S287.94,218.2,288,218.65S297.55,291.9,297.6,292.3S307.15,370.89,307.2,371.28S316.74,447.51,316.8,447.93S326.32,514.62,326.4,515.12S335.84,566.82,336,567.51S345.01,598.83,345.6,600.07S353.15,609.33,355.2,607.79S364.6,586.46,364.8,585.68S374.33,533.73,374.4,533.26S383.96,458.84,384,458.47S393.56,370.55,393.6,370.22S403.16,277.74,403.2,277.4S412.76,189.18,412.8,188.82S422.34,112.42,422.4,111.97S431.87,54.11,432,53.47S439.05,21.17,441.6,19.88S448.49,16.63,451.2,17.78S460.67,49.3,460.8,49.94S470.34,109.58,470.4,110.01S479.96,189.94,480,190.29S489.57,282.76,489.6,283.08S499.17,380.2,499.2,380.52S508.76,473.5,508.8,473.85S518.34,553.5,518.4,553.94S527.84,610.96,528,611.65S535.67,636.87,537.6,638.43S546.2,634.49,547.2,633.01S556.67,599.79,556.8,599.15S566.34,541.15,566.4,540.71S575.96,462.08,576,461.73S585.57,369.84,585.6,369.51S595.17,274.67,595.2,274.33S604.75,186.94,604.8,186.56S614.32,116.86,614.4,116.35S623.77,70.34,624,69.51S631.32,49.26,633.6,47.82S642.18,51.41,643.2,52.9S652.66,85.38,652.8,86.03S662.33,142.6,662.4,143.06S671.95,215.31,672,215.71S681.55,295.23,681.6,295.61S691.15,374.13,691.2,374.54S700.73,445.21,700.8,445.68S710.27,502.31,710.4,502.93S719.59,539.14,720,540.21S726.45,552.47,729.6,552.87S738.59,543.93,739.2,542.67S748.6,513.93,748.8,513.16S758.29,468.44,758.4,467.86S767.92,411.91,768,411.4S777.52,351.05,777.6,350.54S787.1,292.85,787.2,292.29S796.64,244.16,796.8,243.47S806.07,208.82,806.4,207.85S814.89,188.28,816,186.76S822.65,180.61,825.6,181.47S834.44,190.96,835.2,192.33S844.45,214.79,844.8,215.78S854.15,246.36,854.4,247.22S863.77,281.2,864,282.03S873.34,315.27,873.6,316.15S882.83,345.19,883.2,346.22S892.07,367.55,892.8,368.9S900.49,379.91,902.4,381.48S908.81,384.86,912,384.67S919.55,381.86,921.6,380.33S929.9,371.89,931.2,370.32S940.25,357.83,940.8,357.07" style="fill: none; stroke: rgb(0,255,0); stroke-width: 3;"></path>
    </g>
   </svg>
   <g>
    <g transform="translate(0,640)">
     <line x1="0" y1="0" x2="960" y2="0" style="stroke: black; stroke-width: 1;"></line>
     <path d="M2,-12v12m28,-12v12m27,-24v24m28,-12v12m28,-12v12m28,-12v12m27,-12v12m28,-24v24m28,-12v12m27,-12v12m28,-12v12m28,-12v12m28,-24v24m27,-12v12m28,-12v12m28,-12v12m27,-12v12m28,-24v24m28,-12v12m27,-12v12m28,-12v12m28,-12v12m28,-24v24m27,-12v12m28,-12v12m28,-12v12m27,-12v12m28,-24v24m28,-12v12m28,-12v12m27,-12v12m28,-12v12m28,-24v24m27,-12v12m28,-12v12" style="stroke: black; stroke-width: 1;"></path>
     <g font-family="Arial" font-size="28" space="preserve">
      <text fill="black" text-anchor="middle" dy=".8em" transform="translate(57,6)">
       0
      </text>
      <text fill="black" text-anchor="middle" dy=".8em" transform="translate(196,6)">
       5
      </text>
      <text fill="black" text-anchor="middle" dy=".8em" transform="translate(335,6)">
       10
      </text>
      <text fill="black" text-anchor="middle" dy=".8em" transform="translate(473,6)">
       15
      </text>
      <text fill="black" text-anchor="middle" dy=".8em" transform="translate(612,6)">
       20
      </text>
      <text fill="black" text-anchor="middle" dy=".8em" transform="translate(750,6)">
       25
      </text>
      <text fill="black" text-anchor="middle" dy=".8em" transform="translate(889,6)">
       30
      </text>
     </g>
    </g>
    <g>
     <line x1="0" y1="0" x2="0" y2="640" style="stroke: black; stroke-width: 1;"></line>
     <path d="M36,629h-36m18,-15h-18m18,-16h-18m18,-15h-18m36,-16h-36m18,-15h-18m18,-16h-18m18,-15h-18m36,-15h-36m18,-16h-18m18,-15h-18m18,-16h-18m36,-15h-36m18,-16h-18m18,-15h-18m18,-16h-18m36,-15h-36m18,-16h-18m18,-15h-18m18,-15h-18m36,-16h-36m18,-15h-18m18,-16h-18m18,-15h-18m36,-16h-36m18,-15h-18m18,-16h-18m18,-15h-18m36,-16h-36m18,-15h-18m18,-15h-18m18,-16h-18m36,-15h-36m18,-16h-18m18,-15h-18m18,-16h-18m36,-15h-36m18,-16h-18m18,-15h-18m18,-16h-18m36,-15h-36" style="stroke: black; stroke-width: 1;"></path>
     <g font-family="Arial" font-size="28" space="preserve">
      <text fill="black" text-anchor="end" dy=".4em" transform="translate(-4,629)">
       -1
      </text>
      <text fill="black" text-anchor="end" dy=".4em" transform="translate(-4,567)">
       -0.8
      </text>
      <text fill="black" text-anchor="end" dy=".4em" transform="translate(-4,506)">
       -0.6
      </text>
      <text fill="black" text-anchor="end" dy=".4em" transform="translate(-4,444)">
       -0.4
      </text>
      <text fill="black" text-anchor="end" dy=".4em" transform="translate(-4,382)">
       -0.2
      </text>
      <text fill="black" text-anchor="end" dy=".4em" transform="translate(-4,320)">
       0
      </text>
      <text fill="black" text-anchor="end" dy=".4em" transform="translate(-4,258)">
       0.2
      </text>
      <text fill="black" text-anchor="end" dy=".4em" transform="translate(-4,196)">
       0.4
      </text>
      <text fill="black" text-anchor="end" dy=".4em" transform="translate(-4,135)">
       0.6
      </text>
      <text fill="black" text-anchor="end" dy=".4em" transform="translate(-4,73)">
       0.8
      </text>
      <text fill="black" text-anchor="end" dy=".4em" transform="translate(-4,11)">
       1
      </text>
     </g>
    </g>
    <g>
     <line x1="0" y1="0" x2="960" y2="0" style="stroke: black; stroke-width: 1;"></line>
     <path d="M15,0v24m31,-24v12m30,-12v12m31,-12v12m30,-12v12m31,-12v24m30,-24v12m31,-12v12m30,-12v12m31,-12v12m30,-12v24m30,-24v12m31,-12v12m30,-12v12m31,-12v12m30,-12v24m31,-24v12m30,-12v12m31,-12v12m30,-12v12m31,-12v24m30,-24v12m31,-12v12m30,-12v12m31,-12v12m30,-12v24m31,-24v12m30,-12v12m31,-12v12m30,-12v12m31,-12v24m30,-24v12" style="stroke: black; stroke-width: 1;"></path>
     <g font-family="Arial" font-size="28" space="preserve">
      <text fill="black" text-anchor="middle" transform="translate(15,-6)">
       0
      </text>
      <text fill="black" text-anchor="middle" transform="translate(168,-6)">
       5
      </text>
      <text fill="black" text-anchor="middle" transform="translate(320,-6)">
       10
      </text>
      <text fill="black" text-anchor="middle" transform="translate(472,-6)">
       15
      </text>
      <text fill="black" text-anchor="middle" transform="translate(625,-6)">
       20
      </text>
      <text fill="black" text-anchor="middle" transform="translate(777,-6)">
       25
      </text>
      <text fill="black" text-anchor="middle" transform="translate(930,-6)">
       30
      </text>
     </g>
    </g>
    <g transform="translate(960,0)">
     <line x1="0" y1="0" x2="0" y2="640" style="stroke: black; stroke-width: 1;"></line>
     <path d="M0,630h-18m18,-16h-18m18,-16h-18m18,-16h-36m36,-16h-18m18,-16h-18m18,-16h-18m18,-15h-36m36,-16h-18m18,-16h-18m18,-16h-18m18,-16h-36m36,-16h-18m18,-16h-18m18,-16h-18m18,-15h-36m36,-16h-18m18,-16h-18m18,-16h-18m18,-16h-36m36,-16h-18m18,-16h-18m18,-16h-18m18,-16h-36m36,-15h-18m18,-16h-18m18,-16h-18m18,-16h-36m36,-16h-18m18,-16h-18m18,-16h-18m18,-16h-36m36,-16h-18m18,-15h-18m18,-16h-18m18,-16h-36m36,-16h-18m18,-16h-18m18,-16h-18m18,-16h-36" style="stroke: black; stroke-width: 1;"></path>
     <g font-family="Arial" font-size="28" space="preserve">
      <text fill="black" text-anchor="start" dy=".4em" transform="translate(4,582)">
       -0.8
      </text>
      <text fill="black" text-anchor="start" dy=".4em" transform="translate(4,519)">
       -0.6
      </text>
      <text fill="black" text-anchor="start" dy=".4em" transform="translate(4,455)">
       -0.4
      </text>
      <text fill="black" text-anchor="start" dy=".4em" transform="translate(4,392)">
       -0.2
      </text>
      <text fill="black" text-anchor="start" dy=".4em" transform="translate(4,328)">
       0
      </text>
      <text fill="black" text-anchor="start" dy=".4em" transform="translate(4,264)">
       0.2
      </text>
      <text fill="black" text-anchor="start" dy=".4em" transform="translate(4,201)">
       0.4
      </text>
      <text fill="black" text-anchor="start" dy=".4em" transform="translate(4,137)">
       0.6
      </text>
      <text fill="black" text-anchor="start" dy=".4em" transform="translate(4,74)">
       0.8
      </text>
      <text fill="black" text-anchor="start" dy=".4em" transform="translate(4,10)">
       1
      </text>
     </g>
    </g>
   </g>
  </g>
  <g transform="translate(120,4)" font-family="Arial" font-size="40" space="preserve">
   <path d="M0,0h960v53h-960z" style="fill: none;"></path>
   <text fill="black" text-anchor="middle" dy=".8em" transform="translate(480,0)">
    sin(x)*sin(x/10)
   </text>
  </g>
 </g>
</svg>
